dist/img/tg_icon.svg

<svg width="40" height="41" viewBox="0 0 40 41" fill="none" xmlns="http://www.w3.org/2000/svg">
<path d="M40 20.5C40 9.4543 31.0457 0.5 20 0.5C8.9543 0.5 0 9.4543 0 20.5C0 31.5457 8.9543 40.5 20 40.5C31.0457 40.5 40 31.5457 40 20.5Z" fill="#2FACE6"/>
<mask id="mask0_541_3612" style="mask-type:alpha" maskUnits="userSpaceOnUse" x="8" y="10" width="25" height="21">
<path d="M8.18103 10.072H32.181V30.9731H8.18103V10.072Z" fill="white"/>
</mask>
<g mask="url(#mask0_541_3612)">
<path fill-rule="evenodd" clip-rule="evenodd" d="M15.9381 21.052L26.7571 14.388C26.9511 14.269 27.1511 14.532 26.9841 14.687L18.0551 22.986C17.7421 23.279 17.5391 23.669 17.4821 24.094L17.1781 26.348C17.1381 26.649 16.7151 26.679 16.6321 26.388L15.4621 22.277C15.3281 21.808 15.5231 21.308 15.9381 21.052ZM8.60406 20.085L14.1411 22.152L16.2831 29.042C16.4201 29.484 16.9601 29.647 17.3181 29.354L20.4041 26.839C20.7271 26.575 21.1881 26.562 21.5261 26.807L27.0921 30.848C27.4741 31.126 28.0171 30.917 28.1141 30.454L32.1911 10.842C32.2961 10.336 31.7991 9.914 31.3171 10.101L8.59906 18.865C8.03706 19.081 8.04206 19.875 8.60406 20.085Z" fill="#FFFFFE"/>
</g>
</svg>

<svg width="40" height="41" fill="none" xmlns="http://www.w3.org/2000/svg"><path d="M40 20.5c0-11.046-8.954-20-20-20S0 9.454 0 20.5s8.954 20 20 20 20-8.954 20-20z" fill="#2FACE6"/><mask id="a" style="mask-type:alpha" maskUnits="userSpaceOnUse" x="8" y="10" width="25" height="21"><path d="M8.181 10.072h24v20.901h-24V10.072z" fill="#fff"/></mask><g mask="url(#a)"><path fill-rule="evenodd" clip-rule="evenodd" d="M15.938 21.052l10.82-6.664c.193-.119.393.144.226.299l-8.929 8.299a1.855 1.855 0 00-.573 1.108l-.304 2.254c-.04.301-.463.331-.546.04l-1.17-4.111a1.088 1.088 0 01.476-1.225zm-7.334-.967l5.537 2.067 2.142 6.89a.651.651 0 001.035.312l3.086-2.515a.92.92 0 011.122-.032l5.566 4.041a.653.653 0 001.022-.394l4.077-19.612a.652.652 0 00-.874-.741L8.6 18.865a.652.652 0 00.005 1.22z" fill="#FFFFFE"/></g></svg>
